X:174
T:The Persian Dance
O:No 174 Willam Clarke of Feltwell
M:2/4
L:1/16
N:In m.s. bar A7 is |c2AF FDEF|
N:In m.s. Repeat marks at beginning of B and none thereafter.
K:G
dc|B2Bc A2AB|G2G2 G2AB|cBcd edcB|A2A2A2 dc|B2Bc A2AB|G2G2 G2AB|c2A2 FDEF|G2G2G2::dc|B2gf edcB|dcBc A2dc|B2gf edcB|A2A2A2 dc|B2gf edcB|dcBc A2dc|BdcB AcBA|G2G2G2||Bc|d2d2d2g2|d2d2d2g2|d2d2 edcB|dcBc A2Bc|d2d2d2g2|d2d2d2g2|edcB dcBA|G2G2G2||

